**kern
*MM76
*k[]
*M2/2
=1
[4c
16c]
16B
16c
16d
8e
8c
8A
8f#
=2
8g
8d
8e
8B
8c
16d
16e
[4f
=3
16f]
16e
16f
16g
16f
16e
16d
16c
8B
16c
16d
8e
[8a
=4
8a]
16g
16f#
[4g
16g]
16g
16f
16e
16d
16c
16B
16c
=5
4d
4r
2r
=6
1r
=7
1r
=8
2r
[4c
16c]
16B
16c
16d
=9
8e
8c
8A
8f#
2g
=10
4.f
8dd
[4g
16g]
16f#
16g
16a
=11
8b-
8g
8e
8cc#
[2dd
=12
16dd]
16dd
16cc
16b
[4cc
16cc]
16cc
16b
16a
[4b
=13
16b]
16b
16a
16g
[4a
16a]
16a
16g
16f#
4g
=14
[4f
8.f]
16f
[4e
16e]
16e
16f
16g
=15
8a
8f
8d
8g
8e
8c
[4g
=16
16g]
16b
16a
16g
16f#
16a
16g
16f#
16e
16g
16f#
16a
[4g
=17
16g]
16e
16f
16g
16a
16f
16g
16a
8d
8b
[4cc
=18
16cc]
16cc
16b-
16a
[4b-
16b-]
16b-
16a
16g
16f
16a
16g
16f
=19
4e
4f#
4g
4r
=20
2r
[4b
16b]
16g
16a
16b
=21
8cc
8a
8f#
[8dd
16dd]
16dd
16cc
16b
[4a
=22
4a]
4b
16e
16g#
16a
16b
16cc
16ee
16dd
16cc
=23
16dd
16b
16cc
16dd
8.ee
16dd
16cc
16e
16f
16g
16a
16cc
16b
16a
=24
16b
16g
16a
16b
8.cc
16b-
16a
16c
16d
16e
16f
16a
16g
16f
=25
16g
16e
16f
16g
8.a
16g
[4f
16f]
16g
16f
16e
=26
4f
16r
16dd
[8g
16g]
16g
16a
16b
[4cc
=27
16cc]
16cc
16b
16a
8b
8r
2r
=28
[4cc
16cc]
16dd
16cc
16b-
8a
8cc#
8ee
8g
=29
4.f
8f#
8g
4a
8f#
=30
16g
16f#
16g
16a
4b
16r
16a
16b
16cc
16dd
16b
16cc
16dd
=31
[4g
16g]
16b-
16a
16g
[2a
=32
4a_
4a_
16a]
16a
16g
16f#
[4g
=33
16g]
16a
16g#
16f#
[4e
2e_
=34
16e]
16g
16f
16e
4d
[4e
16e]
16f
16e
16d
=35
8c
8e
8g#
8B
8A
16B
16c
16d
16f
16e
16d
=36
16c#
16e
16f
16g
8a
8r
[4a
16a]
16f
16g
16a
=37
8b-
8g
8e
8cc#
8dd
16cc
16b-
16a
16b-
16a
16g
=38
16f
16g
16f
16e
8d
8B
8e
8r
4r
=39
1r
=40
2r
8r
[8dd
16dd]
16ee-
16dd
16cc
=41
8b
8dd
8ff
8a-
8g
16a
16b
[4cc
=42
4cc]
16b-
16cc
16b-
16a-
8g
8r
4r
=43
1r
=44
8r
[8g
16g]
16e-
16f
16g
8a-
8f
8d
8b
=45
8cc
4.g
[4a-
16a-]
16cc
16b
16cc
=46
4b
[4cc
16cc]
16b
[8cc
4cc_
=47
16cc]
8cc
16a
4b
8r
16r
16dd
16ee-
16b
[8cc
=48
4cc_
16cc]
16b
8cc
4g
4r
=49
1r
=50
[4e
16e]
16f
16e
16d
8c
8e
8a
8c
=51
8B
8d
4g
8r
[8g
16g]
16f
16e
16d
=52
16c
16e
16f
16g
8a
16b
16cc
[2dd
=53
8dd]
[8cc
16cc]
16b
16cc
16dd
4g
8r
[8cc
=54
16cc]
16cc
16b
16a
4b
4a
8r
[8a
=55
16a]
16a
16g
16f
4g
4f
8r
[8f
=56
16f]
16f
16e
16d
[4e
16e]
16e
16d
16c#
[4d
=57
16d]
16e
16d
16c#
8d
[8d#
16d#]
16f#
16e
16d#
[4e
=58
16e]
16f
16e
16f
16g
16a-
16f
16g
4a-
16r
16ee-
16dd
16cc
=59
8b
8r
8cc
8r
8r
4g
8f#
=60
16g
16a
16g
16f#
8g
8r
8r
[8g
16g]
16e
16f
16g
=61
8a-
8g
4f
16r
16dd-
16cc
16b-
16a-
16cc
16b-
16a-
=62
16g
16b-
16a-
16g
16f
16a-
16g
16f
[4e
16e]
16g
16a
16b-
=63
16cc
16g
16f#
16e
16f#
16g
16a
16b
16cc
16f
16e-
16d
16e-
16e- 16g
16f 16a
16g 16b
=64
4cc
4r
4b
4r
=65
4a
4r
4a-
8r
8b
=66
8cc
8a
8g 8cc
8g
8g
8r
8cc
8r
=67
8cc
[8cc
16cc]
16dd
16cc
16b-
8a
8cc
8ee
8g
=68
4f
8r
8ff
4gg
16r
16ee
16dd
16cc
=69
[4b-
16b-]
16ee
16cc
16b-
[2a
=70
16a]
16cc
16b
16a
[4g
4g]
8a
8g
=71
8f
8r
8e
8r
8f
8r
8r
8g
=72
8g
8r
4r
2r
==
*-
